img/icons/icon-facebook.svg

<svg width="15" height="28" viewBox="0 0 15 28" fill="none" xmlns="http://www.w3.org/2000/svg">
<path d="M11.7035 5.25484C12.7024 5.25484 13.7014 5.25484 14.4006 4.95313C14.8002 4.14856 15 3.04228 15 1.936C14.8002 1.936 14.9001 1.63428 14.8002 1.53371C14.8002 1.33257 14.5005 1.33257 14.5005 1.13142C14.2009 0.930282 14.0011 0.729141 13.8013 0.527999C13.102 0.326857 12.4028 0.226286 11.6036 0.0251435C10.8045 0.0251435 9.70565 -0.0754291 9.00639 0.125713C6.40916 0.125713 5.01066 1.232 3.71204 2.53942C3.71204 2.63999 3.71204 2.74056 3.61215 2.74056C3.01278 4.3497 3.51225 6.36112 3.41236 8.37254C3.51225 8.77483 3.51225 9.37826 3.61215 9.78054C2.61321 10.0823 1.41449 10.1828 0.21577 10.2834C-0.08391 10.5851 0.0159827 11.3897 0.0159827 11.9931C0.115876 12.5965 0.315665 13.0994 0.415558 13.6022C0.615345 13.8034 1.01492 14.0045 1.2147 14.1051C1.3146 14.1051 1.3146 14.2057 1.3146 14.2057C1.81406 14.5074 2.813 14.2057 3.61215 14.3062C3.51225 16.3177 3.91183 18.2285 3.61215 20.0388C3.61215 20.3405 3.91183 20.4411 3.81193 20.8434C3.81193 21.8491 3.71204 22.8548 4.01172 23.5588C3.71204 24.0616 3.51225 24.5645 3.61215 25.3691C3.71204 25.3691 3.71204 25.5702 3.71204 25.6708C3.61215 26.1736 4.3114 25.8719 4.21151 26.3748C4.4113 26.8776 3.81193 26.5759 3.81193 26.8776V27.7828C4.3114 28.0845 5.31033 27.9839 6.10948 27.9839C7.00852 27.5816 8.30714 27.4811 8.9065 26.7771C9.40597 26.9782 9.80554 26.7771 10.1052 26.5759C10.1052 26.2742 10.4049 26.2742 10.305 25.8719C10.305 25.5702 10.1052 25.3691 10.2051 24.9668V22.0502C10.0053 19.7371 10.2051 17.1222 9.90544 14.8091C10.8045 14.7085 11.8034 14.7085 12.5027 14.4068C12.9022 13.904 12.9022 13.2 13.0021 12.496C13.2019 12.2948 13.2019 11.8925 13.2019 11.4902C13.4017 11.2891 13.3018 10.7863 13.3018 10.384C13.2019 9.78054 13.102 9.07654 12.5027 8.97597C11.6036 8.77483 10.5048 9.5794 9.50586 9.27769C9.50586 8.1714 9.20618 6.96455 9.50586 5.85827C10.305 5.65712 11.0043 5.45598 11.7035 5.25484ZM7.90757 10.0823C8.00746 10.384 8.20725 10.5851 8.30714 10.7863C8.40704 10.7863 8.50693 10.7863 8.50693 10.8868C9.70565 10.9874 10.7046 10.7863 11.6036 10.5851C11.6036 11.5908 11.3039 12.2948 11.1042 13.0994C10.4049 13.0994 9.60575 13.4011 9.10629 13.3005C8.80661 13.5017 8.70671 13.8034 8.50693 14.0045C8.50693 14.4068 8.60682 14.5074 8.50693 14.8091C8.30714 14.9097 8.40704 15.4125 8.30714 15.6137V17.1222C8.40704 17.4239 8.20724 17.4239 8.20724 17.6251V21.1451C8.10735 21.4468 8.30714 21.4468 8.30714 21.6479V24.6651C8.40704 24.9668 8.20725 25.4696 8.40703 25.5702C8.30714 25.9725 8.00746 25.5702 7.60788 25.6708C7.10842 25.7713 6.70884 26.0731 6.10948 26.0731C6.20938 25.6708 6.40916 25.4696 6.40916 24.9668C6.40916 24.5645 6.00959 24.6651 5.9097 24.4639C6.10948 23.8605 6.50906 23.3576 6.60895 22.6536C6.80874 22.1508 7.30821 21.3462 6.90863 20.8434C6.40916 20.7428 6.40916 21.1451 6.10948 21.2456C6.10948 21.3462 6.10948 21.4468 6.00959 21.4468C6.00959 21.5474 6.00959 21.6479 5.9097 21.6479C5.9097 21.7485 5.70991 21.7485 5.9097 21.6479C5.9097 21.5474 5.9097 21.4468 6.00959 21.4468C6.00959 21.3462 6.00959 21.2456 6.10948 21.2456V20.9439C6.50906 20.3405 6.80874 19.7371 6.90863 18.9325C7.10842 18.6308 7.20831 18.2285 7.3082 17.9268C7.50799 17.6251 7.60789 17.0217 7.4081 16.7199C6.90863 16.7199 6.60895 17.0217 6.50906 17.4239C6.20938 17.2228 6.70884 17.0217 6.60895 16.7199C6.70884 16.5188 6.80874 16.1165 6.90863 15.9154C7.10842 15.5131 7.50799 14.6079 6.90863 14.3062C6.50906 14.3062 6.30927 14.5074 6.20938 14.8091C6.00959 15.0102 5.8098 15.2114 5.70991 15.5131C5.31034 15.4125 5.61002 14.8091 5.51012 14.4068C5.41023 13.904 5.61002 13.5017 5.51012 13.2C4.91076 12.3954 3.51225 13.0994 2.31353 12.8982C2.21364 12.5965 2.11375 11.8925 2.21364 11.6914C3.21257 11.5908 4.71098 11.8925 5.41023 11.4902C5.41023 11.3897 5.41023 11.2891 5.51012 11.2891C5.61002 10.5851 5.21044 10.2834 5.01066 9.88111C5.21044 9.07654 5.01065 7.86969 5.11055 6.86398C5.31033 6.76341 5.41023 6.46169 5.61001 6.26055C5.70991 5.25484 6.30927 4.75199 6.30927 3.74627C6.00959 3.74627 5.70991 3.6457 5.70991 3.94742C5.41023 3.84685 5.31034 4.45027 5.21044 4.14856C5.11055 3.6457 5.41023 3.54513 5.51012 3.14285C6.10948 2.74056 6.70885 2.33828 7.4081 1.936C9.10629 1.73485 12.0032 1.53371 13.5016 2.13714C13.6015 2.74056 13.2019 3.04227 13.3018 3.6457H11.8034C10.7046 3.84684 9.80554 4.3497 8.80661 4.65141C8.60682 4.75198 8.50693 4.95313 8.30714 5.0537C8.30714 5.45598 8.10735 5.65712 8.00746 6.05941C7.70778 7.4674 7.90757 8.67426 7.90757 10.0823Z"/>
</svg>

<svg width="15" height="28" fill="none" xmlns="http://www.w3.org/2000/svg"><path d="M11.704 5.255c.998 0 1.997 0 2.697-.302.4-.804.599-1.91.599-3.017-.2 0-.1-.302-.2-.402 0-.201-.3-.201-.3-.403-.3-.2-.499-.402-.699-.603-.699-.201-1.398-.302-2.197-.503-.8 0-1.898-.1-2.598.1-2.597 0-3.995 1.107-5.294 2.414 0 .101 0 .202-.1.202-.6 1.609-.1 3.62-.2 5.632.1.402.1 1.005.2 1.408-.999.301-2.198.402-3.396.502-.3.302-.2 1.107-.2 1.71.1.604.3 1.106.4 1.61.2.2.599.402.799.502.1 0 .1.1.1.1.5.302 1.498 0 2.297.101-.1 2.012.3 3.923 0 5.733 0 .301.3.402.2.804 0 1.006-.1 2.012.2 2.716-.3.503-.5 1.005-.4 1.81.1 0 .1.201.1.302-.1.503.6.2.5.704.2.503-.4.2-.4.503v.905c.5.301 1.498.2 2.297.2.9-.401 2.198-.502 2.797-1.206.5.201.9 0 1.2-.201 0-.302.299-.302.199-.704 0-.302-.2-.503-.1-.905V22.05c-.2-2.313 0-4.928-.3-7.24.9-.101 1.898-.101 2.598-.403.4-.503.4-1.207.5-1.911.199-.201.199-.604.199-1.006.2-.2.1-.704.1-1.106-.1-.603-.2-1.307-.8-1.408-.898-.201-1.997.603-2.996.302 0-1.107-.3-2.313 0-3.42.799-.2 1.498-.402 2.197-.603zm-3.796 4.827c.1.302.3.503.4.704.099 0 .199 0 .199.1 1.199.101 2.198-.1 3.097-.3 0 1.005-.3 1.709-.5 2.513-.7 0-1.498.302-1.998.201-.3.202-.4.503-.6.704 0 .403.1.503 0 .805-.199.1-.099.604-.199.805v1.508c.1.302-.1.302-.1.503v3.52c-.1.302.1.302.1.503v3.017c.1.302-.1.805.1.905-.1.402-.4 0-.8.1-.499.101-.898.403-1.498.403.1-.402.3-.603.3-1.106 0-.402-.4-.302-.5-.503.2-.604.6-1.106.7-1.81.2-.503.7-1.308.3-1.81-.5-.101-.5.301-.8.402 0 .1 0 .2-.1.2 0 .101 0 .202-.1.202 0 .1-.2.1 0 0 0-.1 0-.201.1-.201 0-.1 0-.201.1-.201v-.302c.4-.604.7-1.207.8-2.011.2-.302.3-.704.4-1.006.199-.302.299-.905.1-1.207-.5 0-.8.302-.9.704-.3-.201.2-.402.1-.704.1-.201.2-.604.3-.805.2-.402.599-1.307 0-1.609-.4 0-.6.201-.7.503-.2.201-.4.402-.5.704-.399-.1-.099-.704-.199-1.106-.1-.503.1-.905 0-1.207-.6-.805-1.998-.1-3.196-.302-.1-.301-.2-1.005-.1-1.207.999-.1 2.497.201 3.196-.2 0-.101 0-.202.1-.202.1-.704-.3-1.006-.5-1.408.2-.804 0-2.011.1-3.017.2-.1.3-.402.5-.603.1-1.006.7-1.509.7-2.515-.3 0-.6-.1-.6.201-.3-.1-.4.503-.5.202-.1-.503.2-.604.3-1.006.6-.402 1.199-.805 1.898-1.207 1.698-.201 4.595-.402 6.094.201.1.604-.3.905-.2 1.509h-1.499c-1.098.2-1.997.704-2.996 1.005-.2.101-.3.302-.5.403 0 .402-.2.603-.3 1.005-.3 1.408-.1 2.615-.1 4.023z"/></svg>
